X:2507
T:Miss Isabella McLeod
P:Lord Moira
C:Neil Gow
R:Strathspey (8x32)
B:RSCDS 25-7
Z:Anselm Lingnau <anselm@strathspey.org>
M:C
L:1/8
K:G
d|"G"G2G2 B<dd2|"D7"c>A "G"B>G "D7"A>G (3FED|\
  "G"G2G2 B<dd2|"Am"e>g "D7"f>a "G"g2 gd|
  "G"G2G2 B<dd2|"D7"c>A "G"B>G "D7"A>G (3FED|\
  "G"G2G2 B<dd2|"Am"e>g "D7"f>a "G"g2 gd||
  "G"g<g b>g "D7"a>g f<d|"C"e<e g>e "G"d>c B<G|\
  "G"g<g b>g "D"a>g f<d|"Am"(3efg "D7"(3fga "G"g2 (3gab|
  "D"c'>a "G"b>g "C"a>g e>g|"G"e/d/c/B/ g>B "D7"c/B/A/G/ A>B|\
  "G"G2G2 B<dd2|"C"(3efg "D7"(3fga "G"g2 g|]

